!!!OTL: 812b. Thuermerlied.
!!!ODT: 1878
!!!ARE: Europa, Mitteleuropa, Deutschland, Taunus, Niederreifenberg
!!!SCT: E0812B
!!!TXL: @@DE
!!!YEM: Copyright 1995, estate of Helmut Schaffrath.
**kern	**text
*ICvox	*
*M2/4	*
*k[f#]	*
*G:	*
!LO:TX:a:t=Aus Niederreifenberg im Taunus 1878.	!
{8.d	Als
16d	der
=1	=1
4d	Wächter
4g	.
=2	=2
4a	auf
8a/L	dem
8ccJ	.
=3	=3
4b/	Thur-
4a	-me
=4	=4
4g	ſaß,
4r}	.
=5	=5
{4dd	rief
8dd	er
8dd	mit
=6	=6
4dd	hel-
4dd	-ler
=7	=7
(4cc	Stim-
4dd)	.
=8	=8
4b	-me
8r}	.
{8b	Steht
=9	=9
8b	auf,
8cc	ſteht
8.dd	auf,
16ee	ihr
=10	=10
8dd	jun-
8b	-gen
8cc}	Leut!
{16ddL	wo
16ccJ	.
=11	=11
8b	eins
8a	oder
8b	ʒwei
8dd	bei-
=12	=12
8cc	-ſam-
8b	-men
8a;}	leit,
{16bL	der
16aJ	.
=13	=13
8g	Tag
8a	fängt
8b	an
8cc	ʒu
=14	=14
4dd	leuch-
16eeL	-ten,
16ddJ}	.
{16ccL	ʒu
16bJ	.
=15	=15
4a	leuch-
4g	-ten.
=16	=16
4r}	.
==	==
!!!AGN: Tage - Lied, Waechter - Lied
!!!ONB: ESAC (Essen Associative Code) Database: ERK2
!!!AMT: simple duple
!!!AIN: vox
!!!EED: Helmut Schaffrath
!!!EEV: 1.0
!!!GTL: Tagelieder und Kiltgesaenge
!!!URL-scan: https://rosdok.uni-rostock.de/mcrviewer/recordIdentifier/rosdok_ppn745177662/iview2/phys_0618.iview2?x=192.47699748739979&y=795.770952662453&scale=0.7029437510502773&rotation=0&layout=singlePageLayout
!!!ENC: Anna Maria Matuszewska
!!!EEV: 2024/12/17
*-	*-
